packages/foundations/assets/icons/functional/images/layout/zoom_in.svg

<svg xmlns="http://www.w3.org/2000/svg" width="32" height="32" fill="none"><path fill="#1A1C1F" fill-rule="evenodd" d="M10.933 2.058c-.073.012-.313.048-.533.079-1.323.188-2.781.766-4.005 1.588-2.312 1.554-3.86 4.018-4.294 6.84-.113.733-.113 2.137 0 2.87.68 4.419 4.045 7.784 8.464 8.464.733.113 2.136.113 2.875 0 1.544-.237 3.121-.87 4.331-1.74.285-.205.537-.372.56-.372s2.298 2.257 5.056 5.016 5.06 5.043 5.118 5.075c.568.315 1.327-.015 1.46-.634.056-.263.024-.54-.087-.739-.032-.058-2.316-2.361-5.075-5.118s-5.016-5.033-5.016-5.056.167-.275.372-.56c.87-1.21 1.503-2.787 1.739-4.331.113-.735.113-2.138 0-2.88-.651-4.284-3.862-7.599-8.144-8.407-.427-.08-2.497-.151-2.821-.095m1.909 1.998c1.803.194 3.398.947 4.71 2.222q2.126 2.066 2.403 5.027c.213 2.279-.579 4.523-2.19 6.203-1.175 1.225-2.508 1.968-4.196 2.341-.767.169-2.371.169-3.138 0-1.684-.372-3.009-1.11-4.193-2.336a7.89 7.89 0 0 1-2.193-6.208q.277-2.961 2.403-5.027c1.727-1.679 4.025-2.478 6.394-2.222M11.76 7.035a.97.97 0 0 0-.718.687c-.032.115-.055.841-.055 1.731v1.534H9.464c-.969 0-1.612.022-1.766.061-.934.235-.916 1.649.024 1.91.115.032.841.055 1.731.055h1.534v1.614c0 1.43.01 1.634.093 1.796.211.414.747.658 1.185.538.298-.081.61-.384.689-.669.036-.132.059-.791.059-1.745v-1.534h1.539c1.005 0 1.602-.021 1.72-.06.248-.083.52-.346.647-.626.235-.522-.099-1.154-.683-1.289-.115-.027-.887-.049-1.716-.05l-1.507-.001V9.412c0-1.687-.016-1.812-.282-2.096a1.06 1.06 0 0 0-.971-.281"/></svg>

<svg width="32" height="32" viewBox="0 0 32 32" fill="none" xmlns="http://www.w3.org/2000/svg"><path d="M10.933 2.058 C 10.860 2.070,10.620 2.106,10.400 2.137 C 9.077 2.325,7.619 2.903,6.395 3.725 C 4.083 5.279,2.535 7.743,2.101 10.565 C 1.988 11.298,1.988 12.702,2.101 13.435 C 2.781 17.854,6.146 21.219,10.565 21.899 C 11.298 22.012,12.701 22.012,13.440 21.899 C 14.984 21.662,16.561 21.029,17.771 20.159 C 18.056 19.954,18.308 19.787,18.331 19.787 C 18.354 19.787,20.629 22.044,23.387 24.803 C 26.144 27.562,28.447 29.846,28.505 29.878 C 29.073 30.193,29.832 29.863,29.965 29.244 C 30.021 28.981,29.989 28.704,29.878 28.505 C 29.846 28.447,27.562 26.144,24.803 23.387 C 22.044 20.629,19.787 18.354,19.787 18.331 C 19.787 18.308,19.954 18.056,20.159 17.771 C 21.029 16.561,21.662 14.984,21.898 13.440 C 22.011 12.705,22.011 11.302,21.898 10.560 C 21.247 6.276,18.036 2.961,13.754 2.153 C 13.327 2.073,11.257 2.002,10.933 2.058 M12.842 4.056 C 14.645 4.250,16.240 5.003,17.552 6.278 C 18.970 7.656,19.770 9.330,19.955 11.305 C 20.168 13.584,19.376 15.828,17.765 17.508 C 16.590 18.733,15.257 19.476,13.569 19.849 C 12.802 20.018,11.198 20.018,10.431 19.849 C 8.747 19.477,7.422 18.739,6.238 17.513 C 4.633 15.851,3.832 13.584,4.045 11.305 C 4.230 9.330,5.030 7.656,6.448 6.278 C 8.175 4.599,10.473 3.800,12.842 4.056 M11.760 7.035 C 11.405 7.123,11.137 7.379,11.042 7.722 C 11.010 7.837,10.987 8.563,10.987 9.453 L 10.987 10.987 9.464 10.987 C 8.495 10.987,7.852 11.009,7.698 11.048 C 6.764 11.283,6.782 12.697,7.722 12.958 C 7.837 12.990,8.563 13.013,9.453 13.013 L 10.987 13.013 10.987 14.627 C 10.987 16.057,10.997 16.261,11.080 16.423 C 11.291 16.837,11.827 17.081,12.265 16.961 C 12.563 16.880,12.875 16.577,12.954 16.292 C 12.990 16.160,13.013 15.501,13.013 14.547 L 13.013 13.013 14.552 13.013 C 15.557 13.013,16.154 12.992,16.272 12.953 C 16.520 12.870,16.792 12.607,16.919 12.327 C 17.154 11.805,16.820 11.173,16.236 11.038 C 16.121 11.011,15.349 10.989,14.520 10.988 L 13.013 10.987 13.013 9.412 C 13.013 7.725,12.997 7.600,12.731 7.316 C 12.504 7.073,12.090 6.953,11.760 7.035 " fill="#1A1C1F" stroke="none" fill-rule="evenodd"></path></svg>
